X:1446
T:Bill Harte's Reel
R:reel
H:A version of "Sarah Hobbs", #763
Z:id:hn-reel-350
M:C|
K:G
DEGA BG~G2|AGBG AGEG|DEGA Bded|1 BAAG ABGE:|2 BAAG A2 (3Bcd||
|:eA~A2 (3Bcd eg|dGGF G2 (3Bcd|1 eA~A2 (3Bcd eg|
dBGB A2 (3Bcd:|2 eg~g2 edef|gedB ABGE||


